X:0548
T:Bonny Annie.
M:C|
L:1/8
Q:1/2=100
I: || :|
Z:Jack Campin * www.campin.me.uk * 2009
K:A Minor
c|A/A/A A>G EGGc|A/A/A A>B c>ded|c/B/A/B/ cG E>GG>c|A/A/A eg a>AA||
g|e/f/g cg  ecgc|BGdG      Bcdg |ecgc        egca  |gede     cAAg |
  agea      gced|cAGc      EcGc |AcGA        cdea  |gede     cAA |]
<end>
<start>
